tools/download-figma-icons/icons/outlined-large/show-up.svg

<svg width="64" height="65" viewBox="0 0 64 65" fill="none" xmlns="http://www.w3.org/2000/svg"><path fill-rule="evenodd" clip-rule="evenodd" d="M31.998 61.169C22.625 61.169 15 53.848 15 44.85v-9.768c0-.829.726-1.503 1.617-1.503h19.777c.963 0 1.892.392 2.548 1.074.401.416.657.909.756 1.425.012.07.017.144.023.216.012.119.029.238.024.358a2.898 2.898 0 0 1-.882 1.951c-.6.572-1.394.886-2.235.886H22.749a1.5 1.5 0 0 0 0 3h2.645c6.456 0 11.708 5.035 11.708 11.224a1.5 1.5 0 1 0 3 0c0-4.563-2.242-8.619-5.707-11.224h2.233a6.225 6.225 0 0 0 4.316-1.725 5.941 5.941 0 0 0 1.593-2.726h3.339a6.075 6.075 0 0 0 3.12-.864v7.676c0 8.998-7.625 16.319-16.998 16.319ZM18.13 3c.842 0 1.633.316 2.222.884.579.563.897 1.301.897 2.076v24.619h-4.632c-.571 0-1.112.114-1.617.3V5.96C15 4.328 16.404 3 18.13 3Zm9.249 13.85c.841 0 1.635.314 2.223.874.578.563.896 1.299.896 2.075v10.78h-6.249v-10.78c0-1.626 1.404-2.949 3.13-2.949Zm9.249 2.309c.842 0 1.633.317 2.223.884.578.563.896 1.301.896 2.076v9.294a6.21 6.21 0 0 0-3.119-.834h-3.13v-8.46c0-1.632 1.404-2.96 3.13-2.96Zm6.123 5.628a3.042 3.042 0 0 1 3.039-3.039h.171A3.042 3.042 0 0 1 49 24.787v7.127a3.127 3.127 0 0 1-3.124 3.124h-3.125V24.787Zm9.249 0a6.046 6.046 0 0 0-6.039-6.039h-.171a6 6 0 0 0-3.495 1.123 6.028 6.028 0 0 0-1.358-1.982 6.173 6.173 0 0 0-4.309-1.73c-1.378 0-2.648.45-3.673 1.199a6.073 6.073 0 0 0-1.272-1.795 6.217 6.217 0 0 0-4.304-1.713 6.218 6.218 0 0 0-3.13.843V5.96c0-1.592-.641-3.092-1.81-4.23A6.173 6.173 0 0 0 18.13 0C14.75 0 12 2.674 12 5.96v38.89c0 10.652 8.971 19.319 19.998 19.319 11.027 0 19.998-8.667 19.998-19.319V33.069c0-.129-.021-.252-.052-.372.033-.257.056-.517.056-.783v-7.127Z" fill="currentColor"/></svg>

<svg width="64" height="65" viewBox="0 0 64 65" fill="none" xmlns="http://www.w3.org/2000/svg">
<path fill-rule="evenodd" clip-rule="evenodd" d="M31.998 61.169C22.625 61.169 15 53.848 15 44.85V40.989V35.082C15 34.253 15.726 33.579 16.617 33.579H22.749H31.998H36.394C37.357 33.579 38.286 33.971 38.942 34.653C39.343 35.069 39.599 35.562 39.698 36.078C39.71 36.148 39.715 36.222 39.721 36.294C39.733 36.413 39.75 36.532 39.745 36.652C39.716 37.384 39.397 38.081 38.863 38.603C38.263 39.175 37.469 39.489 36.628 39.489H22.749C21.921 39.489 21.249 40.161 21.249 40.989C21.249 41.817 21.921 42.489 22.749 42.489H25.394C31.85 42.489 37.102 47.524 37.102 53.713C37.102 54.541 37.773 55.213 38.602 55.213C39.43 55.213 40.102 54.541 40.102 53.713C40.102 49.15 37.86 45.094 34.395 42.489H36.628C38.242 42.489 39.769 41.881 40.944 40.764C41.727 40 42.264 39.058 42.537 38.038H45.876C47.017 38.038 48.081 37.719 48.996 37.174V44.85C48.996 53.848 41.371 61.169 31.998 61.169ZM18.13 3C18.972 3 19.763 3.316 20.352 3.884C20.931 4.447 21.249 5.185 21.249 5.96V19.799V30.579H16.617C16.046 30.579 15.505 30.693 15 30.879V5.96C15 4.328 16.404 3 18.13 3ZM27.379 16.85C28.22 16.85 29.014 17.164 29.602 17.724C30.18 18.287 30.498 19.023 30.498 19.799V22.119V30.579H24.249V19.799C24.249 18.173 25.653 16.85 27.379 16.85ZM36.628 19.159C37.47 19.159 38.261 19.476 38.851 20.043C39.429 20.606 39.747 21.344 39.747 22.119V31.413C38.833 30.884 37.767 30.579 36.628 30.579H36.394H33.498V22.119C33.498 20.487 34.902 19.159 36.628 19.159ZM42.751 24.787C42.751 23.111 44.114 21.748 45.79 21.748H45.961C47.637 21.748 49 23.111 49 24.787V31.914C49 33.637 47.599 35.038 45.876 35.038H42.751V24.787ZM52 24.787C52 21.457 49.291 18.748 45.961 18.748H45.79C44.487 18.748 43.282 19.167 42.295 19.871C41.988 19.142 41.532 18.468 40.937 17.889C39.78 16.773 38.249 16.159 36.628 16.159C35.25 16.159 33.98 16.609 32.955 17.358C32.65 16.702 32.227 16.093 31.683 15.563C30.52 14.458 28.993 13.85 27.379 13.85C26.234 13.85 25.166 14.161 24.249 14.693V5.96C24.249 4.368 23.608 2.868 22.439 1.73C21.282 0.614 19.751 0 18.13 0C14.75 0 12 2.674 12 5.96V35.082V40.989V44.85C12 55.502 20.971 64.169 31.998 64.169C43.025 64.169 51.996 55.502 51.996 44.85V33.069C51.996 32.94 51.975 32.817 51.944 32.697C51.977 32.44 52 32.18 52 31.914V24.787Z" fill="black"/>
</svg>
